src/img/doctor_female.svg

<svg width="128" height="128" viewBox="0 0 128 128" fill="none" xmlns="http://www.w3.org/2000/svg">
<mask id="mask0" mask-type="alpha" maskUnits="userSpaceOnUse" x="0" y="0" width="128" height="128">
<circle cx="64" cy="64" r="64" fill="#E0E2EB"/>
</mask>
<g mask="url(#mask0)">
<path d="M14 149.478C14 149.478 23.8374 101.752 66.1582 101.752C108.479 101.752 114 149.478 114 149.478H14Z" fill="#A9ACBC"/>
<path d="M55.8404 102.744C55.8404 102.744 46.8304 111.956 54.3404 118.597C61.4504 124.881 65.8804 115.371 65.8804 115.371C65.8804 115.371 65.8604 121.287 72.9104 120.821C79.9604 120.354 83.6304 111.857 80.8104 104.035C71.0204 98.893 55.8404 102.744 55.8404 102.744Z" fill="#75798A"/>
<path d="M35.3698 77.7281C39.6887 77.7281 43.1898 74.2527 43.1898 69.9656C43.1898 65.6785 39.6887 62.2031 35.3698 62.2031C31.0509 62.2031 27.5498 65.6785 27.5498 69.9656C27.5498 74.2527 31.0509 77.7281 35.3698 77.7281Z" fill="#E0E2EB"/>
<path d="M93.4499 77.7281C97.7687 77.7281 101.27 74.2527 101.27 69.9656C101.27 65.6785 97.7687 62.2031 93.4499 62.2031C89.131 62.2031 85.6299 65.6785 85.6299 69.9656C85.6299 74.2527 89.131 77.7281 93.4499 77.7281Z" fill="#E0E2EB"/>
<path d="M37.5603 62.569C37.3103 66.6984 37.4903 67.9392 37.9503 72.0488C38.8603 80.1984 42.7803 87.2859 50.2303 91.2267C57.7003 95.1775 67.8703 96.587 75.8203 93.3311C81.9803 90.8098 86.7403 86.333 89.1703 80.2778C91.9503 73.3888 91.9803 64.5741 91.6003 57.1392C90.2103 29.5833 67.6003 29.9903 67.6003 29.9903C67.6003 29.9903 37.4503 27.6874 37.5603 62.569Z" fill="#E0E2EB"/>
<path d="M57.0026 90.4398L56 110.416C56 110.416 56.4092 113.611 65.6573 114.216C74.9054 114.822 76 109.428 76 109.428L74.4962 89.4473C69.0435 93.6074 61.5857 90.1313 57.0026 90.4398Z" fill="#E0E2EB"/>
<path d="M36.2999 71.642C36.6699 71.1258 26.8799 28.5412 65.7399 28.4221C102.67 28.3129 92.4899 66.4504 92.4899 66.4504C92.4899 66.4504 76.5899 56.7026 74.5099 41.2173C74.6199 42.0313 73.2299 43.8181 72.7999 44.4831C72.1199 45.5552 71.3399 46.5379 70.5099 47.5008C67.1199 51.4118 63.0199 54.9258 58.4799 57.5861C56.1099 58.9758 53.5899 60.1967 50.9799 61.0901C48.1799 62.0431 45.2699 62.6089 42.5899 63.9092C39.4099 65.4578 37.3999 68.3563 36.2999 71.642Z" fill="#A9ACBC"/>
<path d="M73.9499 32.9296C73.9499 32.9296 68.1799 19.3104 80.9199 15.6376C93.6599 11.9648 101.34 24.8196 86.1199 37.2476C81.6799 32.6119 73.9499 32.9296 73.9499 32.9296Z" fill="#A9ACBC"/>
</g>
</svg>

<svg fill="none" xmlns="http://www.w3.org/2000/svg" viewBox="0 0 128 128"><mask id="a" maskUnits="userSpaceOnUse" x="0" y="0" width="128" height="128"><circle cx="64" cy="64" r="64" fill="#E0E2EB"/></mask><g mask="url(#a)"><path d="M14 149.5s9.8-47.7 52.2-47.7c42.3 0 47.8 47.7 47.8 47.7H14z" fill="#A9ACBC"/><path d="M55.8 102.7s-9 9.3-1.5 15.9c7.2 6.3 11.6-3.2 11.6-3.2s0 5.9 7 5.4c7-.4 10.7-9 8-16.8-9.9-5.1-25-1.3-25-1.3z" fill="#75798A"/><path d="M35.4 77.7c4.3 0 7.8-3.4 7.8-7.7a7.8 7.8 0 00-15.6 0c0 4.3 3.5 7.7 7.8 7.7zM93.4 77.7c4.4 0 7.9-3.4 7.9-7.7 0-4.3-3.5-7.8-7.9-7.8a7.8 7.8 0 00-7.8 7.8c0 4.3 3.5 7.7 7.8 7.7z" fill="#E0E2EB"/><path d="M37.6 62.6c-.3 4.1-.1 5.3.4 9.4.9 8.2 4.8 15.3 12.2 19.2 7.5 4 17.7 5.4 25.6 2.1 6.2-2.5 11-7 13.4-13A57 57 0 0091.6 57c-1.4-27.5-24-27.1-24-27.1s-30.1-2.3-30 32.6z" fill="#E0E2EB"/><path d="M57 90.4l-1 20s.4 3.2 9.7 3.8c9.2.6 10.3-4.8 10.3-4.8l-1.5-20c-5.5 4.2-13 .7-17.5 1z" fill="#E0E2EB"/><path d="M36.3 71.6c.4-.5-9.4-43 29.4-43.2 37 0 26.8 38 26.8 38s-16-9.7-18-25.2c.1.8-1.3 2.6-1.7 3.3l-2.3 3A48.7 48.7 0 0151 61.1c-2.8 1-5.7 1.5-8.4 2.8a12.7 12.7 0 00-6.3 7.7z" fill="#A9ACBC"/><path d="M74 33s-5.8-13.7 7-17.4c12.7-3.6 20.3 9.2 5.1 21.6C81.7 32.6 74 33 74 33z" fill="#A9ACBC"/></g></svg>
